!!!COM: Chen-Duriyang, Phra
!!!CDT: 1883-1968
!!!OTL: National Anthem, Thailand
!!!ENC: Davis, Matthew J.
!!Vocal Line Only
**kern
*clefG2
*k[]
*C:
*M4/4
=1-
16G
8.c
16e
=2
4g
8.g
16g
8.a
16g
8.f
16a
=3
2g
4e
8.e
16f
=4
8.e
16d
[4d
8.d]
16d
8.d
16e
=5
8.d
16c
2c
8.c
16e
=6
4g
4g
8.a
16g
8.f
16a
=7
2.g
8.g
16a
=8
8.b
16g
[4dd
8.dd]
16d
8.a
16b
=9
2a
8g
8r
8.g
16a
=10
8g
8f
2d
8.f
16a
=11
8g
8e
2c
8.c
16e
=12
4d
8.d
16d
4a
8.b
16a
=13
[2g
8g]
16r
16c
8.c
16e
=14
4g
4g
8.a
16b
8.cc
16dd
=15
[2ee
8ee]
16r
16dd
8.cc
16a
=16
8.g
16a
8.b
16cc
8.ee
16cc
8.dd
16cc
=17
[2cc
8cc]
16r
==|!
*-
